X:288
T:Grace’s Farewell. RH.288
R:air
S:Rev.R.Harrison’s MS,c1815,Cumbria
O:England
A:Temple Sowerby,Cumbria
Z:vmp.Simon Wilson. Review PJH, 2008.
M:6/8
L:1/8
Q:3/8=80
K:G
B|G>AB g(e/f/g)|gdB d2B|G>AB g(e/f/g)|gdB G2B|!
G>AB g(e/f/g)|gdB g2a|f>ed edB|dBG G2:|!
|:B|G>AB d2e|dGB d2B|G>AB d2e|dBG A2B|!
G>AB d2e|dBd g2a/g/|f>ed edB|dBG G2:|

